apps/16/org.rncbc.qmidinet.svg

<?xml version="1.0" encoding="UTF-8" standalone="no"?>
<svg
   version="1.1"
   width="16"
   height="16"
   viewBox="0 0 16 16"
   xml:space="preserve"
   id="svg2"
   xmlns:xlink="http://www.w3.org/1999/xlink"
   xmlns="http://www.w3.org/2000/svg"
   xmlns:svg="http://www.w3.org/2000/svg"
   xmlns:rdf="http://www.w3.org/1999/02/22-rdf-syntax-ns#"
   xmlns:cc="http://creativecommons.org/ns#"
   xmlns:dc="http://purl.org/dc/elements/1.1/">
   <defs>
      <style id="current-color-scheme" type="text/css">
         .ColorScheme-Text { color: #0abdc6; } .ColorScheme-Highlight { color:#5294e2; }
      </style>
      <linearGradient id="arrongin" x1="0%" x2="0%" y1="0%" y2="100%">
         <stop offset="0%" style="stop-color:#dd9b44; stop-opacity:1"/>
         <stop offset="100%" style="stop-color:#ad6c16; stop-opacity:1"/>
      </linearGradient>
      <linearGradient id="aurora" x1="0%" x2="0%" y1="0%" y2="100%">
         <stop offset="0%" style="stop-color:#09D4DF; stop-opacity:1"/>
         <stop offset="100%" style="stop-color:#9269F4; stop-opacity:1"/>
      </linearGradient>
      <linearGradient id="cyberneon" x1="0%" x2="0%" y1="0%" y2="100%">
         <stop offset="0" style="stop-color:#0abdc6; stop-opacity:1"/>
         <stop offset="1" style="stop-color:#ea00d9; stop-opacity:1"/>
      </linearGradient>
      <linearGradient id="fitdance" x1="0%" x2="0%" y1="0%" y2="100%">
         <stop offset="0%" style="stop-color:#1AD6AB; stop-opacity:1"/>
         <stop offset="100%" style="stop-color:#329DB6; stop-opacity:1"/>
      </linearGradient>
      <linearGradient id="oomox" x1="0%" x2="0%" y1="0%" y2="100%">
         <stop offset="0%" style="stop-color:#0abdc6; stop-opacity:1"/>
         <stop offset="100%" style="stop-color:#b800ff; stop-opacity:1"/>
      </linearGradient>
      <linearGradient id="rainblue" x1="0%" x2="0%" y1="0%" y2="100%">
         <stop offset="0%" style="stop-color:#00F260; stop-opacity:1"/>
         <stop offset="100%" style="stop-color:#0575E6; stop-opacity:1"/>
      </linearGradient>
      <linearGradient id="sunrise" x1="0%" x2="0%" y1="0%" y2="100%">
         <stop offset="0%" style="stop-color: #FF8501; stop-opacity:1"/>
         <stop offset="100%" style="stop-color: #FFCB01; stop-opacity:1"/>
      </linearGradient>
      <linearGradient id="telinkrin" x1="0%" x2="0%" y1="0%" y2="100%">
         <stop offset="0%" style="stop-color: #b2ced6; stop-opacity:1"/>
         <stop offset="100%" style="stop-color: #6da5b7; stop-opacity:1"/>
      </linearGradient>
      <linearGradient id="60spsycho" x1="0%" x2="0%" y1="0%" y2="100%">
         <stop offset="0%" style="stop-color: #df5940; stop-opacity:1"/>
         <stop offset="25%" style="stop-color: #d8d15f; stop-opacity:1"/>
         <stop offset="50%" style="stop-color: #e9882a; stop-opacity:1"/>
         <stop offset="100%" style="stop-color: #279362; stop-opacity:1"/>
      </linearGradient>
      <linearGradient id="90ssummer" x1="0%" x2="0%" y1="0%" y2="100%">
         <stop offset="0%" style="stop-color: #f618c7; stop-opacity:1"/>
         <stop offset="20%" style="stop-color: #94ffab; stop-opacity:1"/>
         <stop offset="50%" style="stop-color: #fbfd54; stop-opacity:1"/>
         <stop offset="100%" style="stop-color: #0f83ae; stop-opacity:1"/>
      </linearGradient>
   </defs>
  <path
   id="path1"
   class="ColorScheme-Text"
   style="stroke-width:0.0224737;fill:url(#oomox)"
   d="M 0 10.021484 L 0 16 L 1.4609375 16 L 1.4609375 11.527344 L 2.2910156 11.527344 L 2.2910156 16 L 3.6171875 16 L 3.6171875 11.527344 L 4.4707031 11.527344 L 4.4707031 16 L 5.9316406 16 L 5.9316406 10.853516 C 5.9316406 10.401795 5.6768077 10.021484 5.2363281 10.021484 L 0 10.021484 z M 6.6523438 10.021484 L 6.6523438 16 L 8.1132812 16 L 8.1132812 10.021484 L 6.6523438 10.021484 z M 8.8085938 10.021484 L 8.8085938 11.371094 L 12.382812 11.371094 L 12.382812 14.539062 L 10.292969 14.539062 L 10.292969 12.201172 L 8.8085938 12.201172 L 8.8085938 16 L 13.101562 16 C 13.609472 16 13.84375 15.817412 13.84375 15.257812 L 13.84375 10.853516 C 13.84375 10.401795 13.586974 10.021484 13.146484 10.021484 L 8.8085938 10.021484 z M 14.517578 10.021484 L 14.517578 16 L 16 16 L 16 10.021484 L 14.517578 10.021484 z " />
<metadata
   id="metadata2"><rdf:RDF><cc:Work
       rdf:about=""><dc:creator><cc:Agent><dc:title>dreifacherspass</dc:title></cc:Agent></dc:creator><cc:license
         rdf:resource="http://creativecommons.org/licenses/by-sa/4.0/" /></cc:Work><cc:License
       rdf:about="http://creativecommons.org/licenses/by-sa/4.0/"><cc:permits
         rdf:resource="http://creativecommons.org/ns#Reproduction" /><cc:permits
         rdf:resource="http://creativecommons.org/ns#Distribution" /><cc:requires
         rdf:resource="http://creativecommons.org/ns#Notice" /><cc:requires
         rdf:resource="http://creativecommons.org/ns#Attribution" /><cc:permits
         rdf:resource="http://creativecommons.org/ns#DerivativeWorks" /><cc:requires
         rdf:resource="http://creativecommons.org/ns#ShareAlike" /></cc:License></rdf:RDF></metadata>
<path
   id="path4"
   class="ColorScheme-Text"
   style="fill:url(#oomox);stroke-width:0.997;stroke-dasharray:none;paint-order:fill markers stroke"
   d="M 9.7440942,0.00682949 A 0.44909018,0.44794683 0 0 0 9.2236641,0.37039745 0.44909018,0.44794683 0 0 0 9.5881601,0.88950251 C 12.407505,1.3866238 14.610864,3.5904724 15.108227,6.4110695 a 0.44909018,0.44794683 0 0 0 0.52043,0.3635679 0.44909018,0.44794683 0 0 0 0.364496,-0.519105 C 15.43107,3.0679047 12.933104,0.56913173 9.7440942,0.00682949 Z M 9.2996819,1.5933079 A 0.44909018,0.44794683 0 0 0 8.9176435,1.9568759 0.44909018,0.44794683 0 0 0 9.2801902,2.4779251 C 11.421619,2.8577255 13.09841,4.5404689 13.476766,6.698813 a 0.44909018,0.44794683 0 0 0 0.518481,0.3655123 0.44909018,0.44794683 0 0 0 0.366445,-0.5191051 C 13.919337,4.0217976 11.951143,2.0409659 9.4380734,1.5952521 A 0.44909018,0.44794683 0 0 0 9.2996819,1.5933079 Z M 9.0462891,3.1817304 A 0.44909018,0.44794683 0 0 0 8.6642505,3.5452984 0.44909018,0.44794683 0 0 0 9.0267974,4.0644035 C 10.510977,4.3260891 11.671095,5.4855442 11.933019,6.971003 a 0.44909018,0.44794683 0 0 0 0.520429,0.3635679 0.44909018,0.44794683 0 0 0 0.364497,-0.519105 C 12.491304,4.962971 11.038528,3.510539 9.1846806,3.1836746 a 0.44909018,0.44794683 0 0 0 -0.1383915,-0.00194 z m -0.2592404,1.58259 A 0.44909018,0.44794683 0 0 0 8.3835692,5.133721 0.44909018,0.44794683 0 0 0 8.7480651,5.6528261 C 9.5646385,5.7968017 10.20023,6.4331018 10.34444,7.2509698 a 0.44909018,0.44794683 0 0 0 0.520431,0.3635679 0.44909018,0.44794683 0 0 0 0.364495,-0.519105 C 11.020439,5.9105285 10.090241,4.9793073 8.9039992,4.770153 A 0.44909018,0.44794683 0 0 0 8.7870487,4.7643204 Z M 8.4050101,6.7882469 c -0.4445605,0 -0.8050098,0.360654 -0.8050098,0.8049045 C 7.6000003,8.0374019 7.9604496,8.4 8.4050101,8.4 8.8495706,8.4 9.211969,8.0374019 9.211969,7.5931514 c 0,-0.4442505 -0.3623984,-0.8049045 -0.8069589,-0.8049045 z" /></svg>

<?xml version="1.0" encoding="UTF-8" standalone="no"?>
<svg
   version="1.1"
   width="16"
   height="16"
   viewBox="0 0 16 16"
   xml:space="preserve"
   id="svg2"
   xmlns:xlink="http://www.w3.org/1999/xlink"
   xmlns="http://www.w3.org/2000/svg"
   xmlns:svg="http://www.w3.org/2000/svg"
   xmlns:rdf="http://www.w3.org/1999/02/22-rdf-syntax-ns#"
   xmlns:cc="http://creativecommons.org/ns#"
   xmlns:dc="http://purl.org/dc/elements/1.1/">
  <defs>
    <style id="current-color-scheme" type="text/css">
      .ColorScheme-Text { color: #0abdc6; } .ColorScheme-Highlight { color:#5294e2; }
    </style>
    <linearGradient id="arrongin" x1="0%" x2="0%" y1="0%" y2="100%">
      <stop offset="0%" style="stop-color:#dd9b44; stop-opacity:1"/>
      <stop offset="100%" style="stop-color:#ad6c16; stop-opacity:1"/>
    </linearGradient>
    <linearGradient id="aurora" x1="0%" x2="0%" y1="0%" y2="100%">
      <stop offset="0%" style="stop-color:#09D4DF; stop-opacity:1"/>
      <stop offset="100%" style="stop-color:#9269F4; stop-opacity:1"/>
    </linearGradient>
    <linearGradient id="cyberneon" x1="0%" x2="0%" y1="0%" y2="100%">
      <stop offset="0" style="stop-color:#0abdc6; stop-opacity:1"/>
      <stop offset="1" style="stop-color:#ea00d9; stop-opacity:1"/>
    </linearGradient>
    <linearGradient id="fitdance" x1="0%" x2="0%" y1="0%" y2="100%">
      <stop offset="0%" style="stop-color:#1AD6AB; stop-opacity:1"/>
      <stop offset="100%" style="stop-color:#329DB6; stop-opacity:1"/>
    </linearGradient>
    <linearGradient id="oomox" x1="0%" x2="0%" y1="0%" y2="100%">
      <stop offset="0%" style="stop-color:#0abdc6; stop-opacity:1"/>
      <stop offset="100%" style="stop-color:#b800ff; stop-opacity:1"/>
    </linearGradient>
    <linearGradient id="rainblue" x1="0%" x2="0%" y1="0%" y2="100%">
      <stop offset="0%" style="stop-color:#00F260; stop-opacity:1"/>
      <stop offset="100%" style="stop-color:#0575E6; stop-opacity:1"/>
    </linearGradient>
    <linearGradient id="sunrise" x1="0%" x2="0%" y1="0%" y2="100%">
      <stop offset="0%" style="stop-color: #FF8501; stop-opacity:1"/>
      <stop offset="100%" style="stop-color: #FFCB01; stop-opacity:1"/>
    </linearGradient>
    <linearGradient id="telinkrin" x1="0%" x2="0%" y1="0%" y2="100%">
      <stop offset="0%" style="stop-color: #b2ced6; stop-opacity:1"/>
      <stop offset="100%" style="stop-color: #6da5b7; stop-opacity:1"/>
    </linearGradient>
    <linearGradient id="60spsycho" x1="0%" x2="0%" y1="0%" y2="100%">
      <stop offset="0%" style="stop-color: #df5940; stop-opacity:1"/>
      <stop offset="25%" style="stop-color: #d8d15f; stop-opacity:1"/>
      <stop offset="50%" style="stop-color: #e9882a; stop-opacity:1"/>
      <stop offset="100%" style="stop-color: #279362; stop-opacity:1"/>
    </linearGradient>
    <linearGradient id="90ssummer" x1="0%" x2="0%" y1="0%" y2="100%">
      <stop offset="0%" style="stop-color: #f618c7; stop-opacity:1"/>
      <stop offset="20%" style="stop-color: #94ffab; stop-opacity:1"/>
      <stop offset="50%" style="stop-color: #fbfd54; stop-opacity:1"/>
      <stop offset="100%" style="stop-color: #0f83ae; stop-opacity:1"/>
    </linearGradient>
  </defs>
  <path
   id="path1"
   class="ColorScheme-Text"
   style="stroke-width:0.0224737;fill:url(#oomox)"
   d="M 0 10.021484 L 0 16 L 1.4609375 16 L 1.4609375 11.527344 L 2.2910156 11.527344 L 2.2910156 16 L 3.6171875 16 L 3.6171875 11.527344 L 4.4707031 11.527344 L 4.4707031 16 L 5.9316406 16 L 5.9316406 10.853516 C 5.9316406 10.401795 5.6768077 10.021484 5.2363281 10.021484 L 0 10.021484 z M 6.6523438 10.021484 L 6.6523438 16 L 8.1132812 16 L 8.1132812 10.021484 L 6.6523438 10.021484 z M 8.8085938 10.021484 L 8.8085938 11.371094 L 12.382812 11.371094 L 12.382812 14.539062 L 10.292969 14.539062 L 10.292969 12.201172 L 8.8085938 12.201172 L 8.8085938 16 L 13.101562 16 C 13.609472 16 13.84375 15.817412 13.84375 15.257812 L 13.84375 10.853516 C 13.84375 10.401795 13.586974 10.021484 13.146484 10.021484 L 8.8085938 10.021484 z M 14.517578 10.021484 L 14.517578 16 L 16 16 L 16 10.021484 L 14.517578 10.021484 z " />
<metadata
   id="metadata2"><rdf:RDF><cc:Work
       rdf:about=""><dc:creator><cc:Agent><dc:title>dreifacherspass</dc:title></cc:Agent></dc:creator><cc:license
         rdf:resource="http://creativecommons.org/licenses/by-sa/4.0/" /></cc:Work><cc:License
       rdf:about="http://creativecommons.org/licenses/by-sa/4.0/"><cc:permits
         rdf:resource="http://creativecommons.org/ns#Reproduction" /><cc:permits
         rdf:resource="http://creativecommons.org/ns#Distribution" /><cc:requires
         rdf:resource="http://creativecommons.org/ns#Notice" /><cc:requires
         rdf:resource="http://creativecommons.org/ns#Attribution" /><cc:permits
         rdf:resource="http://creativecommons.org/ns#DerivativeWorks" /><cc:requires
         rdf:resource="http://creativecommons.org/ns#ShareAlike" /></cc:License></rdf:RDF></metadata>
<path
   id="path4"
   class="ColorScheme-Text"
   style="fill:url(#oomox);-inkscape-stroke:none;paint-order:fill markers stroke"
   d="M 9.7304688 0 A 0.44999999 0.44999999 0 0 0 9.2089844 0.36523438 A 0.44999999 0.44999999 0 0 0 9.5742188 0.88671875 C 12.399276 1.3861186 14.607098 3.6000685 15.105469 6.4335938 A 0.44999999 0.44999999 0 0 0 15.626953 6.7988281 A 0.44999999 0.44999999 0 0 0 15.992188 6.2773438 C 15.428966 3.0751056 12.925939 0.56487955 9.7304688 0 z M 9.2851562 1.59375 A 0.44999999 0.44999999 0 0 0 8.9023438 1.9589844 A 0.44999999 0.44999999 0 0 0 9.265625 2.4824219 C 11.411392 2.8639631 13.09158 4.5544193 13.470703 6.7226562 A 0.44999999 0.44999999 0 0 0 13.990234 7.0898438 A 0.44999999 0.44999999 0 0 0 14.357422 6.5683594 C 13.91417 4.0333707 11.941989 2.0434599 9.4238281 1.5957031 A 0.44999999 0.44999999 0 0 0 9.2851562 1.59375 z M 9.03125 3.1894531 A 0.44999999 0.44999999 0 0 0 8.6484375 3.5546875 A 0.44999999 0.44999999 0 0 0 9.0117188 4.0761719 C 10.498905 4.3390569 11.661374 5.5038264 11.923828 6.9960938 A 0.44999999 0.44999999 0 0 0 12.445312 7.3613281 A 0.44999999 0.44999999 0 0 0 12.810547 6.8398438 C 12.483244 4.978858 11.027525 3.5197688 9.1699219 3.1914062 A 0.44999999 0.44999999 0 0 0 9.03125 3.1894531 z M 8.7714844 4.7792969 A 0.44999999 0.44999999 0 0 0 8.3671875 5.1503906 A 0.44999999 0.44999999 0 0 0 8.7324219 5.671875 C 9.5506496 5.8165105 10.187529 6.4557271 10.332031 7.2773438 A 0.44999999 0.44999999 0 0 0 10.853516 7.6425781 A 0.44999999 0.44999999 0 0 0 11.21875 7.1210938 C 11.009399 5.9307586 10.077317 4.9952692 8.8886719 4.7851562 A 0.44999999 0.44999999 0 0 0 8.7714844 4.7792969 z M 8.3886719 6.8125 C 7.9432107 6.8125 7.5820312 7.1748071 7.5820312 7.6210938 C 7.5820312 8.0673805 7.9432107 8.4316406 8.3886719 8.4316406 C 8.834133 8.4316406 9.1972656 8.0673805 9.1972656 7.6210938 C 9.1972656 7.1748071 8.834133 6.8125 8.3886719 6.8125 z " /></svg>
